X:13
T:November Afternoon
C:Bernie Waugh with apologies to Ralph Vaughan Williams
S:Bernie Waugh
R:Waltz
M:3/4
L:1/4
Q:160
K:Em
|:\
"Em"BAB|E2B|"Bm"dBA|B3|\
"Em"BEG|"A"A3|"C"GD"D"F|"Em"E3:|
"E"B>BB|"G"BAB|"C"e2"D"d|"E"B3|\
"D"A>AA|"Am7"AGA|"F"a2"G"g|"A"e3|
"Dm7"d>dd|"G"d2d|"Bb"=fdc|"Fm7"d2c|\
"G"B>BB|"Bm7"BAB|"C"c2"D"d|"E"e3|]

